X:1
T:Alankaar 2 — Doubles
C:Exercise
M:none
L:1/4
Q:1/4=90
K:C
% Each scale degree repeated 2× ascending then descending.
CC DD | EE FF | GG AA | BB cc | cc BB | AA GG | FF EE | DD CC |
